X:75
T:Judique Jig
M:6/8
L:1/8
C:Townsend?
R:Jig
K:A
c2d|"A"efec2d|"A"|efe cAc|"D"dcd BGE|"Bm"d3 "E7"dcd| "A"efe "A7"ce=g|"D
" fef "Bm"dfa|"E"gbg "E7"gfg"A"| "A" a3 :|
|a2e|"A"agf edc|"Bm"Bcd "E7"f2d|"A"cde "F#"a2e|"Bm"d2e"E7" fdg |"A"agf e
d
c|"Bm"Bcd fga|"E"efe dcB|"A"A3:||

